systematic/svg/file.svg

<?xml version="1.0" encoding="UTF-8" standalone="no"?>
<svg
   xmlns:dc="http://purl.org/dc/elements/1.1/"
   xmlns:cc="http://creativecommons.org/ns#"
   xmlns:rdf="http://www.w3.org/1999/02/22-rdf-syntax-ns#"
   xmlns:svg="http://www.w3.org/2000/svg"
   xmlns="http://www.w3.org/2000/svg"
   viewBox="0 0 320 320"
   height="320"
   width="320"
   xml:space="preserve"
   version="1.1"
   id="svg2"><metadata
     id="metadata8"><rdf:RDF><cc:Work
         rdf:about=""><dc:format>image/svg+xml</dc:format><dc:type
           rdf:resource="http://purl.org/dc/dcmitype/StillImage" /></cc:Work></rdf:RDF></metadata><defs
     id="defs6"><clipPath
       id="clipPath16"
       clipPathUnits="userSpaceOnUse"><path
         id="path18"
         d="M 0,256 256,256 256,0 0,0 0,256 Z" /></clipPath><clipPath
       id="clipPath24"
       clipPathUnits="userSpaceOnUse"><path
         id="path26"
         d="m 76,192 104,0 0,-128 -104,0 0,128 z" /></clipPath></defs><g
     transform="matrix(1.25,0,0,-1.25,0,320)"
     id="g10"><g
       id="g12"><g
         clip-path="url(#clipPath16)"
         id="g14"><g
           id="g20"><g
             id="g22" /><g
             id="g28"><g
               style="opacity:0.5"
               id="g30"
               clip-path="url(#clipPath24)"><g
                 id="g32"
                 transform="translate(143.8614,192)"><path
                   id="path34"
                   style="fill:#ffffff;fill-opacity:1;fill-rule:nonzero;stroke:none"
                   d="m 0,0 -3.29,0 -50.286,0 c -7.877,0 -14.285,-6.38 -14.285,-14.222 l 0,-99.556 c 0,-7.842 6.408,-14.222 14.285,-14.222 l 75.429,0 c 7.877,0 14.286,6.38 14.286,14.222 l 0,74.667 0,3.337 -2.372,2.348 L 2.338,-2.314 0,0 Z" /></g></g></g></g><g
           transform="translate(140.5714,184)"
           id="g36"><path
             id="path38"
             style="fill:#e6e6e6;fill-opacity:1;fill-rule:nonzero;stroke:none"
             d="m 0,0 -50.286,0 c -3.473,0 -6.285,-2.784 -6.285,-6.222 l 0,-99.556 c 0,-3.438 2.812,-6.222 6.285,-6.222 l 75.429,0 c 3.473,0 6.286,2.784 6.286,6.222 l 0,74.667 L 0,0 Z" /></g><g
           transform="translate(137.1379,176)"
           id="g40"><path
             id="path42"
             style="fill:#b3b3b3;fill-opacity:1;fill-rule:nonzero;stroke:none"
             d="m 0,0 26.862,-26.401 0,-69.599 -72,0 0,96 L 0,0 Z" /></g><g
           transform="translate(155.2128,150)"
           id="g44"><path
             id="path46"
             style="fill:#ffffff;fill-opacity:1;fill-rule:nonzero;stroke:none"
             d="m 0,0 -12.813,0 c -3.536,0 -6.4,2.864 -6.4,6.4 l 0,12.8 0,12.8 32,-32 L 0,0 Z" /></g></g></g></g></svg>

<?xml version="1.0" encoding="UTF-8" standalone="no"?>
<svg
   xmlns:dc="http://purl.org/dc/elements/1.1/"
   xmlns:cc="http://creativecommons.org/ns#"
   xmlns:rdf="http://www.w3.org/1999/02/22-rdf-syntax-ns#"
   xmlns:svg="http://www.w3.org/2000/svg"
   xmlns="http://www.w3.org/2000/svg"
   viewBox="0 0 138.66612 170.66665"
   height="170.66666"
   width="138.66612"
   xml:space="preserve"
   id="svg2"
   version="1.1"><metadata
     id="metadata8"><rdf:RDF><cc:Work
         rdf:about=""><dc:format>image/svg+xml</dc:format><dc:type
           rdf:resource="http://purl.org/dc/dcmitype/StillImage" /></cc:Work></rdf:RDF></metadata><defs
     id="defs6"><clipPath
       id="clipPath18"
       clipPathUnits="userSpaceOnUse"><path
         id="path16"
         d="M 0,256 H 256 V 0 H 0 Z" /></clipPath><clipPath
       id="clipPath26"
       clipPathUnits="userSpaceOnUse"><path
         id="path24"
         d="M 76,192 H 180 V 64 H 76 Z" /></clipPath></defs><g
     transform="matrix(1.3333333,0,0,-1.3333333,-101.33386,255.99999)"
     id="g10"><g
       id="g12"><g
         clip-path="url(#clipPath18)"
         id="g14"><g
           id="g20"><g
             id="g22" /><g
             id="g34"><g
               style="opacity:0.5"
               id="g32"
               clip-path="url(#clipPath26)"><g
                 id="g30"
                 transform="translate(143.8614,192)"><path
                   id="path28"
                   style="fill:#ffffff;fill-opacity:1;fill-rule:nonzero;stroke:none"
                   d="m 0,0 h -3.29 -50.286 c -7.877,0 -14.285,-6.38 -14.285,-14.222 v -99.556 c 0,-7.842 6.408,-14.222 14.285,-14.222 h 75.429 c 7.877,0 14.286,6.38 14.286,14.222 v 74.667 3.337 l -2.372,2.348 -31.429,31.112 z" /></g></g></g></g><g
           transform="translate(140.5714,184)"
           id="g36"><path
             id="path38"
             style="fill:#e6e6e6;fill-opacity:1;fill-rule:nonzero;stroke:none"
             d="m 0,0 h -50.286 c -3.473,0 -6.285,-2.784 -6.285,-6.222 v -99.556 c 0,-3.438 2.812,-6.222 6.285,-6.222 h 75.429 c 3.473,0 6.286,2.784 6.286,6.222 v 74.667 z" /></g><g
           transform="translate(137.1379,176)"
           id="g40"><path
             id="path42"
             style="fill:#b3b3b3;fill-opacity:1;fill-rule:nonzero;stroke:none"
             d="M 0,0 26.862,-26.401 V -96 h -72 V 0 Z" /></g><g
           transform="translate(155.2128,150)"
           id="g44"><path
             id="path46"
             style="fill:#ffffff;fill-opacity:1;fill-rule:nonzero;stroke:none"
             d="m 0,0 h -12.813 c -3.536,0 -6.4,2.864 -6.4,6.4 V 19.2 32 l 32,-32 z" /></g></g></g></g></svg>
